public/img/icon-rules-2.svg

<svg width="40" height="36" viewBox="0 0 40 36" fill="none" xmlns="http://www.w3.org/2000/svg">
<g clip-path="url(#clip0_1_2)">
<path fill-rule="evenodd" clip-rule="evenodd" d="M2 0C1.46957 0 0.960859 0.210714 0.585786 0.585786C0.210714 0.960859 0 1.46957 0 2L0 14C0 15.1 0.9 16 2 16H16C16.5304 16 17.0391 15.7893 17.4142 15.4142C17.7893 15.0391 18 14.5304 18 14V2C18 1.46957 17.7893 0.960859 17.4142 0.585786C17.0391 0.210714 16.5304 0 16 0L2 0ZM24 0C23.4696 0 22.9609 0.210714 22.5858 0.585786C22.2107 0.960859 22 1.46957 22 2V14C22 15.1 22.9 16 24 16H38C38.5304 16 39.0391 15.7893 39.4142 15.4142C39.7893 15.0391 40 14.5304 40 14V2C40 1.46957 39.7893 0.960859 39.4142 0.585786C39.0391 0.210714 38.5304 0 38 0L24 0ZM22 22C22 20.9 22.9 20 24 20H38C38.5304 20 39.0391 20.2107 39.4142 20.5858C39.7893 20.9609 40 21.4696 40 22V34C40 34.5304 39.7893 35.0391 39.4142 35.4142C39.0391 35.7893 38.5304 36 38 36H24C23.4696 36 22.9609 35.7893 22.5858 35.4142C22.2107 35.0391 22 34.5304 22 34V22ZM2 20C1.46957 20 0.960859 20.2107 0.585786 20.5858C0.210714 20.9609 0 21.4696 0 22L0 34C0 35.1 0.9 36 2 36H16C16.5304 36 17.0391 35.7893 17.4142 35.4142C17.7893 35.0391 18 34.5304 18 34V22C18 21.4696 17.7893 20.9609 17.4142 20.5858C17.0391 20.2107 16.5304 20 16 20H2Z" fill="#EDF5F9"/>
<path fill-rule="evenodd" clip-rule="evenodd" d="M2 1H16C16.2652 1 16.5196 1.10536 16.7071 1.29289C16.8946 1.48043 17 1.73478 17 2V14C17 14.2652 16.8946 14.5196 16.7071 14.7071C16.5196 14.8946 16.2652 15 16 15H2C1.73478 15 1.48043 14.8946 1.29289 14.7071C1.10536 14.5196 1 14.2652 1 14V2C1 1.73478 1.10536 1.48043 1.29289 1.29289C1.48043 1.10536 1.73478 1 2 1ZM0 2C0 0.9 0.9 0 2 0H16C16.5304 0 17.0391 0.210714 17.4142 0.585786C17.7893 0.960859 18 1.46957 18 2V14C18 14.5304 17.7893 15.0391 17.4142 15.4142C17.0391 15.7893 16.5304 16 16 16H2C1.46957 16 0.960859 15.7893 0.585786 15.4142C0.210714 15.0391 0 14.5304 0 14V2ZM24 1H38C38.2652 1 38.5196 1.10536 38.7071 1.29289C38.8946 1.48043 39 1.73478 39 2V14C39 14.2652 38.8946 14.5196 38.7071 14.7071C38.5196 14.8946 38.2652 15 38 15H24C23.7348 15 23.4804 14.8946 23.2929 14.7071C23.1054 14.5196 23 14.2652 23 14V2C23 1.73478 23.1054 1.48043 23.2929 1.29289C23.4804 1.10536 23.7348 1 24 1ZM22 2C22 0.9 22.9 0 24 0H38C38.5304 0 39.0391 0.210714 39.4142 0.585786C39.7893 0.960859 40 1.46957 40 2V14C40 14.5304 39.7893 15.0391 39.4142 15.4142C39.0391 15.7893 38.5304 16 38 16H24C23.4696 16 22.9609 15.7893 22.5858 15.4142C22.2107 15.0391 22 14.5304 22 14V2ZM38 21H24C23.7348 21 23.4804 21.1054 23.2929 21.2929C23.1054 21.4804 23 21.7348 23 22V34C23 34.2652 23.1054 34.5196 23.2929 34.7071C23.4804 34.8946 23.7348 35 24 35H38C38.2652 35 38.5196 34.8946 38.7071 34.7071C38.8946 34.5196 39 34.2652 39 34V22C39 21.7348 38.8946 21.4804 38.7071 21.2929C38.5196 21.1054 38.2652 21 38 21ZM24 20C23.4696 20 22.9609 20.2107 22.5858 20.5858C22.2107 20.9609 22 21.4696 22 22V34C22 35.1 22.9 36 24 36H38C38.5304 36 39.0391 35.7893 39.4142 35.4142C39.7893 35.0391 40 34.5304 40 34V22C40 21.4696 39.7893 20.9609 39.4142 20.5858C39.0391 20.2107 38.5304 20 38 20H24ZM2 21H16C16.2652 21 16.5196 21.1054 16.7071 21.2929C16.8946 21.4804 17 21.7348 17 22V34C17 34.2652 16.8946 34.5196 16.7071 34.7071C16.5196 34.8946 16.2652 35 16 35H2C1.73478 35 1.48043 34.8946 1.29289 34.7071C1.10536 34.5196 1 34.2652 1 34V22C1 21.7348 1.10536 21.4804 1.29289 21.2929C1.48043 21.1054 1.73478 21 2 21ZM0 22C0 20.9 0.9 20 2 20H16C16.5304 20 17.0391 20.2107 17.4142 20.5858C17.7893 20.9609 18 21.4696 18 22V34C18 34.5304 17.7893 35.0391 17.4142 35.4142C17.0391 35.7893 16.5304 36 16 36H2C1.46957 36 0.960859 35.7893 0.585786 35.4142C0.210714 35.0391 0 34.5304 0 34V22Z" fill="#0064FF"/>
<path fill-rule="evenodd" clip-rule="evenodd" d="M30.93 9.76C30.8682 9.76177 30.8067 9.75019 30.7497 9.72602C30.6928 9.70186 30.6417 9.6657 30.6 9.62C30.5236 9.51215 30.4849 9.38208 30.49 9.25C30.49 9.02 30.51 8.81 30.57 8.61C30.62 8.41 30.72 8.21 30.84 8C30.97 7.8 31.13 7.57 31.34 7.35L31.7 6.89C31.8636 6.65851 31.9541 6.38338 31.96 6.1C31.9647 5.99121 31.9436 5.88285 31.8984 5.78379C31.8532 5.68472 31.7852 5.59775 31.7 5.53C31.52 5.39 31.27 5.33 30.95 5.33C30.65 5.33 30.39 5.36 30.15 5.44C29.91 5.52 29.67 5.62 29.43 5.76C29.3003 5.84889 29.1472 5.89759 28.99 5.9C28.8757 5.88603 28.7698 5.83305 28.69 5.75C28.6063 5.6694 28.5503 5.56439 28.53 5.45C28.5115 5.32667 28.5325 5.20064 28.59 5.09C28.661 4.9509 28.768 4.83346 28.9 4.75C29.2 4.55 29.55 4.4 29.94 4.3C30.33 4.19 30.69 4.14 31.04 4.14C31.5 4.14 31.9 4.21 32.24 4.37C32.6 4.52 32.87 4.73 33.06 5C33.26 5.28 33.36 5.6 33.36 5.96C33.36 6.41437 33.2126 6.85649 32.94 7.22C32.79 7.42 32.59 7.62 32.34 7.86C32.11 8.06 31.93 8.26 31.79 8.43C31.65 8.59 31.56 8.76 31.49 8.91C31.43 9.06 31.39 9.23 31.37 9.41C31.37 9.51 31.32 9.59 31.24 9.66C31.1533 9.73176 31.0423 9.76755 30.93 9.76ZM30.91 12.06C30.799 12.0627 30.6885 12.0429 30.5854 12.0016C30.4822 11.9603 30.3885 11.8986 30.31 11.82C30.1584 11.6615 30.0757 11.4493 30.08 11.23C30.08 11 30.15 10.8 30.3 10.66C30.3794 10.5832 30.4734 10.5233 30.5765 10.4838C30.6796 10.4443 30.7897 10.426 30.9 10.43C31.16 10.43 31.36 10.5 31.5 10.66C31.65 10.8 31.72 11 31.72 11.23C31.72 11.47 31.65 11.67 31.5 11.83C31.36 11.98 31.16 12.05 30.9 12.05L30.91 12.06ZM8.6 9.62C8.68 9.72 8.79 9.76 8.93 9.76C9.06 9.76 9.16 9.72 9.23 9.66C9.27088 9.62948 9.30458 9.5904 9.32877 9.54548C9.35295 9.50057 9.36702 9.45092 9.37 9.4C9.39 9.23 9.43 9.06 9.49 8.9C9.56 8.76 9.65 8.6 9.79 8.43C9.93 8.26 10.11 8.07 10.34 7.86C10.59 7.63 10.79 7.41 10.94 7.22C11.2106 6.85923 11.3579 6.42095 11.36 5.97C11.36 5.59 11.26 5.27 11.06 5C10.8529 4.71968 10.5727 4.50173 10.25 4.37C9.86743 4.20876 9.45505 4.13037 9.04 4.14C8.28371 4.13953 7.54239 4.35084 6.9 4.75C6.76803 4.83346 6.66095 4.9509 6.59 5.09C6.53032 5.20353 6.50925 5.33342 6.53 5.46C6.55 5.57 6.6 5.67 6.68 5.76C6.76637 5.84361 6.87998 5.89332 7 5.9C7.15724 5.89759 7.31029 5.84889 7.44 5.76C7.68 5.62 7.92 5.52 8.16 5.44C8.4 5.36 8.66 5.32 8.96 5.32C9.28 5.32 9.53 5.39 9.71 5.53C9.88 5.67 9.97 5.86 9.97 6.1C9.96156 6.37984 9.87116 6.65105 9.71 6.88C9.62 7.02 9.5 7.18 9.35 7.35C9.14 7.57 8.98 7.79 8.85 8C8.73 8.2 8.63 8.4 8.58 8.61C8.52 8.81 8.5 9.02 8.5 9.25C8.5 9.4 8.54 9.53 8.6 9.62ZM8.3 11.82C8.46 11.98 8.66 12.05 8.9 12.05C9.16 12.05 9.36 11.98 9.5 11.82C9.64799 11.6599 9.72702 11.4479 9.72 11.23C9.72433 11.1229 9.70626 11.0161 9.66695 10.9164C9.62764 10.8168 9.56795 10.7264 9.49171 10.6511C9.41547 10.5758 9.32435 10.5172 9.22419 10.4792C9.12402 10.4411 9.01701 10.4243 8.91 10.43C8.79966 10.426 8.68964 10.4443 8.58654 10.4838C8.48344 10.5233 8.38938 10.5832 8.31001 10.66C8.23458 10.7341 8.17523 10.823 8.13566 10.9211C8.09609 11.0191 8.07715 11.1243 8.08 11.23C8.08 11.47 8.15 11.67 8.3 11.83V11.82ZM8.6 29.62C8.68 29.72 8.79 29.76 8.93 29.76C9.06 29.76 9.16 29.72 9.23 29.66C9.27088 29.6295 9.30458 29.5904 9.32877 29.5455C9.35295 29.5006 9.36702 29.4509 9.37 29.4C9.39 29.23 9.43 29.06 9.49 28.9C9.56 28.76 9.65 28.6 9.79 28.43C9.93 28.26 10.11 28.07 10.34 27.86C10.59 27.63 10.79 27.41 10.94 27.22C11.2106 26.8592 11.3579 26.421 11.36 25.97C11.36 25.59 11.26 25.27 11.06 25C10.8529 24.7197 10.5727 24.5017 10.25 24.37C9.86743 24.2088 9.45505 24.1304 9.04 24.14C8.28371 24.1395 7.54239 24.3508 6.9 24.75C6.76803 24.8335 6.66095 24.9509 6.59 25.09C6.53246 25.2006 6.51145 25.3267 6.53 25.45C6.55 25.57 6.6 25.67 6.68 25.75C6.7638 25.8315 6.87349 25.881 6.99 25.89C7.14622 25.8906 7.29918 25.8454 7.43 25.76C7.67 25.62 7.91 25.52 8.15 25.44C8.39 25.36 8.65 25.32 8.95 25.32C9.27 25.32 9.52 25.39 9.7 25.53C9.87 25.67 9.96 25.86 9.96 26.1C9.95215 26.3799 9.86169 26.6513 9.7 26.88C9.61 27.02 9.49 27.18 9.34 27.35C9.13 27.57 8.97 27.79 8.84 28C8.72 28.2 8.62 28.4 8.57 28.61C8.51 28.81 8.49 29.02 8.49 29.25C8.49 29.4 8.53 29.53 8.59 29.62H8.6ZM8.3 31.82C8.46 31.98 8.66 32.05 8.9 32.05C9.16 32.05 9.36 31.98 9.5 31.82C9.64799 31.6599 9.72702 31.4479 9.72 31.23C9.72433 31.1229 9.70626 31.0161 9.66695 30.9164C9.62764 30.8168 9.56795 30.7264 9.49171 30.6511C9.41547 30.5758 9.32435 30.5172 9.22419 30.4792C9.12402 30.4411 9.01701 30.4243 8.91 30.43C8.79966 30.426 8.68964 30.4443 8.58654 30.4838C8.48344 30.5233 8.38938 30.5832 8.31001 30.66C8.23458 30.7341 8.17523 30.823 8.13566 30.9211C8.09609 31.0191 8.07715 31.1243 8.08 31.23C8.08 31.47 8.15 31.67 8.3 31.83V31.82ZM30.6 29.62C30.68 29.72 30.79 29.76 30.93 29.76C31.06 29.76 31.16 29.72 31.23 29.66C31.2709 29.6295 31.3046 29.5904 31.3288 29.5455C31.3529 29.5006 31.367 29.4509 31.37 29.4C31.39 29.23 31.43 29.06 31.49 28.9C31.56 28.76 31.65 28.6 31.79 28.43C31.93 28.26 32.11 28.07 32.34 27.86C32.59 27.63 32.79 27.41 32.94 27.22C33.2106 26.8592 33.3579 26.421 33.36 25.97C33.36 25.59 33.26 25.27 33.06 25C32.8529 24.7197 32.5727 24.5017 32.25 24.37C31.8674 24.2088 31.4551 24.1304 31.04 24.14C30.2837 24.1395 29.5424 24.3508 28.9 24.75C28.768 24.8335 28.661 24.9509 28.59 25.09C28.5325 25.2006 28.5115 25.3267 28.53 25.45C28.55 25.57 28.6 25.67 28.68 25.75C28.7638 25.8315 28.8735 25.881 28.99 25.89C29.1462 25.8906 29.2992 25.8454 29.43 25.76C29.67 25.62 29.91 25.52 30.15 25.44C30.39 25.36 30.65 25.32 30.95 25.32C31.27 25.32 31.52 25.39 31.7 25.53C31.87 25.67 31.96 25.86 31.96 26.1C31.9522 26.3799 31.8617 26.6513 31.7 26.88C31.61 27.02 31.49 27.18 31.34 27.35C31.13 27.57 30.97 27.79 30.84 28C30.72 28.2 30.62 28.4 30.57 28.61C30.51 28.81 30.49 29.02 30.49 29.25C30.49 29.4 30.53 29.53 30.59 29.62H30.6ZM30.3 31.82C30.46 31.98 30.66 32.05 30.9 32.05C31.16 32.05 31.36 31.98 31.5 31.82C31.648 31.6599 31.727 31.4479 31.72 31.23C31.7243 31.1229 31.7063 31.0161 31.6669 30.9164C31.6276 30.8168 31.568 30.7264 31.4917 30.6511C31.4155 30.5758 31.3244 30.5172 31.2242 30.4792C31.124 30.4411 31.017 30.4243 30.91 30.43C30.7997 30.426 30.6896 30.4443 30.5865 30.4838C30.4834 30.5233 30.3894 30.5832 30.31 30.66C30.2346 30.7341 30.1752 30.823 30.1357 30.9211C30.0961 31.0191 30.0771 31.1243 30.08 31.23C30.08 31.47 30.15 31.67 30.3 31.83V31.82Z" fill="#0064FF"/>
</g>
<defs>
<clipPath id="clip0_1_2">
<rect width="40" height="36" fill="white"/>
</clipPath>
</defs>
</svg>

<svg width="40" height="36" fill="none" xmlns="http://www.w3.org/2000/svg"><path fill-rule="evenodd" clip-rule="evenodd" d="M2 0a2 2 0 0 0-2 2v12c0 1.1.9 2 2 2h14a2 2 0 0 0 2-2V2a2 2 0 0 0-2-2H2Zm22 0a2 2 0 0 0-2 2v12c0 1.1.9 2 2 2h14a2 2 0 0 0 2-2V2a2 2 0 0 0-2-2H24Zm-2 22c0-1.1.9-2 2-2h14a2 2 0 0 1 2 2v12a2 2 0 0 1-2 2H24a2 2 0 0 1-2-2V22ZM2 20a2 2 0 0 0-2 2v12c0 1.1.9 2 2 2h14a2 2 0 0 0 2-2V22a2 2 0 0 0-2-2H2Z" fill="#EDF5F9"/><path fill-rule="evenodd" clip-rule="evenodd" d="M2 1h14a1 1 0 0 1 1 1v12a1 1 0 0 1-1 1H2a1 1 0 0 1-1-1V2a1 1 0 0 1 1-1ZM0 2C0 .9.9 0 2 0h14a2 2 0 0 1 2 2v12a2 2 0 0 1-2 2H2a2 2 0 0 1-2-2V2Zm24-1h14a1 1 0 0 1 1 1v12a1 1 0 0 1-1 1H24a1 1 0 0 1-1-1V2a1 1 0 0 1 1-1Zm-2 1c0-1.1.9-2 2-2h14a2 2 0 0 1 2 2v12a2 2 0 0 1-2 2H24a2 2 0 0 1-2-2V2Zm16 19H24a1 1 0 0 0-1 1v12a1 1 0 0 0 1 1h14a1 1 0 0 0 1-1V22a1 1 0 0 0-1-1Zm-14-1a2 2 0 0 0-2 2v12c0 1.1.9 2 2 2h14a2 2 0 0 0 2-2V22a2 2 0 0 0-2-2H24ZM2 21h14a1 1 0 0 1 1 1v12a1 1 0 0 1-1 1H2a1 1 0 0 1-1-1V22a1 1 0 0 1 1-1Zm-2 1c0-1.1.9-2 2-2h14a2 2 0 0 1 2 2v12a2 2 0 0 1-2 2H2a2 2 0 0 1-2-2V22Z" fill="#BAD6EB"/><path fill-rule="evenodd" clip-rule="evenodd" d="M30.93 9.76a.43.43 0 0 1-.33-.14.6.6 0 0 1-.11-.37c0-.23.02-.44.08-.64.05-.2.15-.4.27-.61.13-.2.29-.43.5-.65l.36-.46a1.42 1.42 0 0 0 .26-.79.69.69 0 0 0-.26-.57c-.18-.14-.43-.2-.75-.2-.3 0-.56.03-.8.11s-.48.18-.72.32a.8.8 0 0 1-.44.14.5.5 0 0 1-.3-.15.55.55 0 0 1-.16-.3.59.59 0 0 1 .06-.36.87.87 0 0 1 .31-.34c.3-.2.65-.35 1.04-.45.39-.11.75-.16 1.1-.16.46 0 .86.07 1.2.23.36.15.63.36.82.63.2.28.3.6.3.96a2.1 2.1 0 0 1-.42 1.26c-.15.2-.35.4-.6.64-.23.2-.41.4-.55.57-.14.16-.23.33-.3.48-.06.15-.1.32-.12.5 0 .1-.05.18-.13.25a.44.44 0 0 1-.31.1Zm-.02 2.3a.82.82 0 0 1-.6-.24.83.83 0 0 1-.23-.59c0-.23.07-.43.22-.57a.82.82 0 0 1 .6-.23c.26 0 .46.07.6.23.15.14.22.34.22.57 0 .24-.07.44-.22.6-.14.15-.34.22-.6.22ZM8.6 9.62c.08.1.19.14.33.14.13 0 .23-.04.3-.1a.35.35 0 0 0 .14-.26c.02-.17.06-.34.12-.5.07-.14.16-.3.3-.47.14-.17.32-.36.55-.57.25-.23.45-.45.6-.64a2.1 2.1 0 0 0 .42-1.25c0-.38-.1-.7-.3-.97a1.9 1.9 0 0 0-.81-.63 2.94 2.94 0 0 0-1.21-.23 4.05 4.05 0 0 0-2.14.61.87.87 0 0 0-.31.34.59.59 0 0 0-.06.37c.02.11.07.21.15.3A.5.5 0 0 0 7 5.9a.8.8 0 0 0 .44-.14c.24-.14.48-.24.72-.32.24-.08.5-.12.8-.12.32 0 .57.07.75.21.17.14.26.33.26.57a1.43 1.43 0 0 1-.26.78c-.09.14-.21.3-.36.47-.21.22-.37.44-.5.65-.12.2-.22.4-.27.61-.06.2-.08.41-.08.64 0 .15.04.28.1.37Zm-.3 2.2c.16.16.36.23.6.23.26 0 .46-.07.6-.23a.83.83 0 0 0 .22-.59.77.77 0 0 0-.81-.8.82.82 0 0 0-.6.23.77.77 0 0 0-.23.57c0 .24.07.44.22.6Zm.3 17.8c.08.1.19.14.33.14.13 0 .23-.04.3-.1a.35.35 0 0 0 .14-.26c.02-.17.06-.34.12-.5.07-.14.16-.3.3-.47.14-.17.32-.36.55-.57.25-.23.45-.45.6-.64a2.1 2.1 0 0 0 .42-1.25c0-.38-.1-.7-.3-.97a1.9 1.9 0 0 0-.81-.63 2.94 2.94 0 0 0-1.21-.23 4.05 4.05 0 0 0-2.14.61.87.87 0 0 0-.31.34.59.59 0 0 0-.06.36c.02.12.07.22.15.3a.5.5 0 0 0 .31.14.8.8 0 0 0 .44-.13c.24-.14.48-.24.72-.32.24-.08.5-.12.8-.12.32 0 .57.07.75.21.17.14.26.33.26.57a1.42 1.42 0 0 1-.26.78c-.09.14-.21.3-.36.47-.21.22-.37.44-.5.65-.12.2-.22.4-.27.61-.06.2-.08.41-.08.64 0 .15.04.28.1.37Zm-.3 2.2c.16.16.36.23.6.23.26 0 .46-.07.6-.23a.83.83 0 0 0 .22-.59.77.77 0 0 0-.81-.8.82.82 0 0 0-.6.23.77.77 0 0 0-.23.57c0 .24.07.44.22.6Zm22.3-2.2c.08.1.19.14.33.14.13 0 .23-.04.3-.1a.35.35 0 0 0 .14-.26c.02-.17.06-.34.12-.5.07-.14.16-.3.3-.47.14-.17.32-.36.55-.57.25-.23.45-.45.6-.64a2.1 2.1 0 0 0 .42-1.25c0-.38-.1-.7-.3-.97a1.9 1.9 0 0 0-.81-.63 2.94 2.94 0 0 0-1.21-.23 4.05 4.05 0 0 0-2.14.61.87.87 0 0 0-.31.34.59.59 0 0 0-.06.36c.02.12.07.22.15.3a.5.5 0 0 0 .31.14.8.8 0 0 0 .44-.13c.24-.14.48-.24.72-.32.24-.08.5-.12.8-.12.32 0 .57.07.75.21.17.14.26.33.26.57a1.42 1.42 0 0 1-.26.78c-.09.14-.21.3-.36.47-.21.22-.37.44-.5.65-.12.2-.22.4-.27.61-.06.2-.08.41-.08.64 0 .15.04.28.1.37Zm-.3 2.2c.16.16.36.23.6.23.26 0 .46-.07.6-.23a.83.83 0 0 0 .22-.59.77.77 0 0 0-.81-.8.82.82 0 0 0-.6.23.77.77 0 0 0-.23.57c0 .24.07.44.22.6Z" fill="#8CAEC8"/></svg>
